X:2314 
T:Padjer Columb Killey 
C:Traditional
O:Isle of Man
Z:Collected by Mona Douglas 
B:Kiaull Vannin #314 
M:4/4 
Q:60 
K:G 
B2 Bd E2 E>D|E>E G>G AA Bd|d3 d e2 d2|B2 AG E2 D2|d3 d e2 d2|B2 (AG) E2 D>D| 
E3 E D4|E3 E D4|G3 A B2 d2|e2 (de) B2 D2|E2 G2 A3 A|B8||

